assets/images/img_locked.svg

<svg width="46" height="46" viewBox="0 0 46 46" fill="none" xmlns="http://www.w3.org/2000/svg">
<path d="M34.5 19.625H32.125V11.5C32.125 9.0799 31.1636 6.75892 29.4524 5.04765C27.7411 3.33638 25.4201 2.375 23 2.375C20.5799 2.375 18.2589 3.33638 16.5477 5.04765C14.8364 6.75892 13.875 9.0799 13.875 11.5V19.625H11.5C10.6049 19.625 9.74645 19.9806 9.11351 20.6135C8.48058 21.2465 8.125 22.1049 8.125 23V40.25C8.125 41.1451 8.48058 42.0035 9.11351 42.6365C9.74645 43.2694 10.6049 43.625 11.5 43.625H34.5C35.3951 43.625 36.2535 43.2694 36.8865 42.6365C37.5194 42.0035 37.875 41.1451 37.875 40.25V23C37.875 22.1049 37.5194 21.2465 36.8865 20.6135C36.2535 19.9806 35.3951 19.625 34.5 19.625ZM17.75 11.5C17.75 10.1076 18.3031 8.77225 19.2877 7.78769C20.2723 6.80312 21.6076 6.25 23 6.25C24.3924 6.25 25.7277 6.80312 26.7123 7.78769C27.6969 8.77225 28.25 10.1076 28.25 11.5V19.625H17.75V11.5ZM12 39.75V23.5H34V39.75H12Z" fill="#FFE142" stroke="#FFE142"/>
</svg>

<svg xmlns="http://www.w3.org/2000/svg" width="46" height="46" fill="none" viewBox="0 0 46 46"><path fill="#FFE142" stroke="#FFE142" d="M34.5 19.625h-2.375V11.5a9.125 9.125 0 0 0-18.25 0v8.125H11.5A3.375 3.375 0 0 0 8.125 23v17.25a3.375 3.375 0 0 0 3.375 3.375h23a3.375 3.375 0 0 0 3.375-3.375V23a3.375 3.375 0 0 0-3.375-3.375ZM17.75 11.5a5.25 5.25 0 1 1 10.5 0v8.125h-10.5V11.5ZM12 39.75V23.5h22v16.25H12Z"/></svg>
